images-source/features/certify.svg

<?xml version="1.0" encoding="UTF-8"?>
<svg width="54px" height="72px" viewBox="0 0 54 72" version="1.1" xmlns="http://www.w3.org/2000/svg" xmlns:xlink="http://www.w3.org/1999/xlink">
    <!-- Generator: Sketch 48.2 (47327) - http://www.bohemiancoding.com/sketch -->
    <title>certify</title>
    <desc>Created with Sketch.</desc>
    <defs></defs>
    <g id="platform" stroke="none" stroke-width="1" fill="none" fill-rule="evenodd" transform="translate(-1052.000000, -2649.000000)">
        <g id="Group-13" transform="translate(-90.000000, 2381.000000)" fill-rule="nonzero">
            <g id="Group-4" transform="translate(406.000000, 259.000000)">
                <g id="certify" transform="translate(736.000000, 9.000000)">
                    <g id="icon">
                        <path d="M43.5211579,62.1056842 C44.0554737,62.1909474 44.6011579,62.0602105 45.0388421,61.7390526 C45.4708421,61.4264211 45.7721053,60.9432632 45.8516842,60.4061053 L46.332,57.2144211 C46.4286316,56.5721053 46.8293684,56.0264211 47.4091579,55.7336842 L50.2995789,54.2898947 C50.7884211,54.0426316 51.1550526,53.6191579 51.3198947,53.1047368 C51.4904211,52.5846316 51.4364211,52.0275789 51.192,51.5444211 L49.7027368,48.6653684 C49.41,48.1026316 49.41,47.4176842 49.7027368,46.8492632 L51.192,43.9730526 C51.4364211,43.4898947 51.4875789,42.9328421 51.3198947,42.4127368 C51.1522105,41.8954737 50.7855789,41.4748421 50.2995789,41.2275789 L47.4091579,39.7837895 C46.8293684,39.4910526 46.4286316,38.9453684 46.332,38.3030526 L45.8516842,35.1113684 C45.7721053,34.5742105 45.4708421,34.0938947 45.0388421,33.7812632 C44.6011579,33.4572632 44.0554737,33.3265263 43.5211579,33.4146316 L40.3237895,33.9489474 C39.69,34.0541053 39.0476842,33.8437895 38.5929474,33.3862105 L36.3221053,31.0784211 C35.9384211,30.6947368 35.424,30.4787368 34.8783158,30.4787368 C34.3411579,30.4787368 33.8153684,30.6975789 33.4345263,31.0784211 L31.1636842,33.3862105 C30.7117895,33.8466316 30.0666316,34.0541053 29.4328421,33.9489474 L26.2411579,33.4231579 C25.7068421,33.3350526 25.1611579,33.4657895 24.7206316,33.7897895 C24.2857895,34.1024211 23.9873684,34.5827368 23.9077895,35.1198947 L23.4303158,38.3115789 C23.3308421,38.9538947 22.9329474,39.4995789 22.3531579,39.7923158 L19.4598947,41.2361053 C18.9795789,41.4833684 18.6072632,41.904 18.4424211,42.4212632 C18.2747368,42.9413684 18.3230526,43.4984211 18.5674737,43.9815789 L20.0567368,46.8577895 C20.3523158,47.4233684 20.3523158,48.1083158 20.0567368,48.6738947 L18.5674737,51.5529474 C18.3230526,52.0361053 18.2747368,52.5931579 18.4424211,53.1132632 C18.6101053,53.6276842 18.9767368,54.0511579 19.4598947,54.2984211 L22.3531579,55.7422105 C22.9329474,56.0349474 23.3308421,56.5806316 23.4303158,57.2229474 L23.9077895,60.4146316 C23.9873684,60.9489474 24.2857895,61.4321053 24.7206316,61.7475789 C25.1583158,62.0687368 25.704,62.1994737 26.2411579,62.1142105 L29.4328421,61.5884211 C30.0666316,61.4775789 30.7117895,61.6907368 31.1636842,62.1483158 L33.4345263,64.4504211 C33.8182105,64.8426316 34.3383158,65.0586316 34.8783158,65.0586316 C35.4211579,65.0586316 35.9412632,64.8426316 36.3221053,64.4504211 L38.5929474,62.1483158 C39.0476842,61.6907368 39.6928421,61.4775789 40.3237895,61.5884211 L43.5211579,62.1056842 Z M34.8754737,59.7751579 C28.0828421,59.7751579 22.5606316,54.2529474 22.5606316,47.4631579 C22.5606316,40.6733684 28.0856842,35.1454737 34.8754737,35.1454737 C41.6681053,35.1454737 47.1903158,40.6762105 47.1903158,47.4631579 C47.1903158,54.2501053 41.6709474,59.7751579 34.8754737,59.7751579 Z" id="Shape" fill="#FFAF1D"></path>
                        <path d="M34.8783158,36.9217895 C29.0775789,36.9217895 24.354,41.6396842 24.354,47.4432632 C24.354,53.2468421 29.0804211,57.9647368 34.8783158,57.9647368 C40.6847368,57.9647368 45.4026316,53.2468421 45.4026316,47.4432632 C45.4026316,41.6396842 40.6847368,36.9217895 34.8783158,36.9217895 Z" id="Shape" fill="#00AAE3"></path>
                        <path d="M53.2184211,64.4106316 L47.4915789,58.6809474 L47.2016842,60.6135789 C47.0652632,61.5031579 46.5707368,62.3245263 45.8403158,62.8503158 C45.1155789,63.3789474 44.2089474,63.6034737 43.3051579,63.4556842 L40.1049474,62.9327368 C39.8406316,62.9156842 39.6814737,62.9895789 39.5649474,63.1089474 L39.0192632,63.6574737 L46.4996842,71.1350526 C46.7895789,71.4249474 47.2073684,71.5272632 47.5938947,71.4107368 C47.9804211,71.2885263 48.2646316,70.9673684 48.3442105,70.5666316 L49.0177895,66.9372632 L52.6585263,66.2551579 C53.0564211,66.1812632 53.3775789,65.8942105 53.4941053,65.5048421 C53.6134737,65.1154737 53.5054737,64.692 53.2184211,64.4106316 Z" id="Shape" fill="#FFAF1D"></path>
                        <path d="M29.754,62.9185263 L26.4571579,63.4556842 C25.5334737,63.5977895 24.6382105,63.3761053 23.9106316,62.8417895 C23.1858947,62.3188421 22.6913684,61.5003158 22.5549474,60.6050526 L22.2650526,58.6809474 L16.5410526,64.4106316 C16.2568421,64.6948421 16.1516842,65.1154737 16.2682105,65.502 C16.3904211,65.8913684 16.7144211,66.1727368 17.1066316,66.2523158 L20.7445263,66.9315789 L21.4266316,70.5666316 C21.5005263,70.9673684 21.7875789,71.2885263 22.1741053,71.4107368 C22.5577895,71.5272632 22.9784211,71.4249474 23.2626316,71.1378947 L30.7402105,63.6574737 L30.1945263,63.1061053 C30.0751579,62.9838947 29.916,62.9185263 29.754,62.9185263 Z" id="Shape" fill="#FFAF1D"></path>
                        <path d="M38.1410526,11.9851579 L11.3257895,11.9851579 C10.3594737,11.9851579 9.57789474,12.7667368 9.57789474,13.7330526 C9.57505263,14.7050526 10.3566316,15.4837895 11.3257895,15.4837895 L38.1410526,15.4837895 C39.1045263,15.4837895 39.8889474,14.7050526 39.8889474,13.7387368 C39.8889474,12.7724211 39.1016842,11.9851579 38.1410526,11.9851579 Z" id="Shape" fill="#4D4D4D"></path>
                        <path d="M38.1410526,20.9491579 L11.3257895,20.9491579 C10.3594737,20.9491579 9.57789474,21.7307368 9.57789474,22.6913684 C9.57505263,23.6576842 10.3566316,24.4421053 11.3257895,24.4421053 L38.1410526,24.4421053 C39.1045263,24.4421053 39.8889474,23.6633684 39.8889474,22.6942105 C39.8889474,21.7307368 39.1016842,20.9491579 38.1410526,20.9491579 Z" id="Shape" fill="#4D4D4D"></path>
                        <path d="M19.5309474,57.456 L18.2093684,56.7966316 C17.8711579,56.6261053 17.5642105,56.4072632 17.28,56.1628421 L5.99115789,56.1628421 C5.21810526,56.1628421 4.59,55.5318947 4.59,54.7645263 L4.59,5.12715789 C4.59,4.35126316 5.21810526,3.72315789 5.99115789,3.72315789 L43.5581053,3.72315789 C44.3283158,3.72315789 44.9592632,4.35126316 44.9592632,5.12715789 L44.9592632,30.726 C45.5845263,30.8737895 46.1813684,31.1466316 46.7043158,31.536 C47.7274737,32.2664211 48.4351579,33.4345263 48.6255789,34.7077895 L48.6824211,5.13 C48.6881053,2.30210526 46.386,0 43.5581053,0 L5.99115789,0 C3.16326316,0 0.861157895,2.30494737 0.861157895,5.13 L0.861157895,54.7702105 C0.861157895,57.6009474 3.16610526,59.9030526 5.99115789,59.9030526 L17.0895789,59.9030526 L19.5309474,57.456 Z" id="Shape" fill="#4D4D4D"></path>
                    </g>
                </g>
            </g>
        </g>
    </g>
</svg>

<svg width="54" height="72" viewBox="0 0 54 72" xmlns="http://www.w3.org/2000/svg"><title>certify</title><g fill-rule="nonzero" fill="none"><path d="M43.521 62.106a2.024 2.024 0 0 0 1.518-.367c.432-.313.733-.796.813-1.333l.48-3.192a1.986 1.986 0 0 1 1.077-1.48l2.89-1.444a2.02 2.02 0 0 0 1.02-1.185 2.04 2.04 0 0 0-.127-1.56l-1.49-2.88a1.988 1.988 0 0 1 0-1.816l1.49-2.876c.244-.483.296-1.04.128-1.56a2.031 2.031 0 0 0-1.02-1.185l-2.89-1.444a1.986 1.986 0 0 1-1.078-1.48l-.48-3.193a2.017 2.017 0 0 0-.813-1.33 2 2 0 0 0-1.518-.366l-3.197.534a1.98 1.98 0 0 1-1.731-.563l-2.27-2.308a2.034 2.034 0 0 0-2.888 0l-2.271 2.308a1.97 1.97 0 0 1-1.731.563l-3.192-.526a2.009 2.009 0 0 0-1.52.367 2.006 2.006 0 0 0-.813 1.33l-.478 3.192a1.993 1.993 0 0 1-1.077 1.48l-2.893 1.444c-.48.247-.853.668-1.018 1.185-.167.52-.119 1.077.125 1.56l1.49 2.877a1.97 1.97 0 0 1 0 1.816l-1.49 2.879a2.052 2.052 0 0 0-.125 1.56c.168.515.535.938 1.018 1.185l2.893 1.444c.58.293.978.839 1.077 1.48l.478 3.193c.08.534.378 1.017.813 1.333.437.32.983.451 1.52.366l3.192-.526a1.96 1.96 0 0 1 1.73.56l2.272 2.302a2.017 2.017 0 0 0 2.887 0l2.27-2.302c.456-.457 1.1-.67 1.732-.56l3.197.518zm-8.646-2.33c-6.792 0-12.314-5.523-12.314-12.313 0-6.79 5.525-12.318 12.314-12.318 6.793 0 12.315 5.531 12.315 12.318s-5.52 12.312-12.315 12.312z" fill="#FFAF1D"/><path d="M34.878 36.922c-5.8 0-10.524 4.718-10.524 10.521 0 5.804 4.726 10.522 10.524 10.522 5.807 0 10.525-4.718 10.525-10.522 0-5.803-4.718-10.521-10.525-10.521z" fill="#00AAE3"/><path d="M53.218 64.41l-5.726-5.73-.29 1.934c-.137.89-.631 1.71-1.362 2.236a3.368 3.368 0 0 1-2.535.606l-3.2-.523c-.264-.017-.424.057-.54.176l-.546.548 7.48 7.478c.29.29.708.392 1.095.276.386-.122.67-.444.75-.844l.674-3.63 3.64-.682c.398-.074.72-.36.836-.75.12-.39.011-.813-.276-1.094zM29.754 62.919l-3.297.537a3.406 3.406 0 0 1-3.902-2.85l-.29-1.925-5.724 5.73c-.284.284-.39.704-.273 1.091.122.39.446.67.839.75l3.638.68.682 3.635c.074.4.36.722.747.844.384.116.804.014 1.089-.273l7.477-7.48-.545-.552a.616.616 0 0 0-.441-.187z" fill="#FFAF1D"/><path d="M38.141 11.985H11.326c-.967 0-1.748.782-1.748 1.748a1.742 1.742 0 0 0 1.748 1.75H38.14c.964 0 1.748-.778 1.748-1.744 0-.967-.787-1.754-1.748-1.754zM38.141 20.95H11.326a1.745 1.745 0 1 0 0 3.492H38.14a1.747 1.747 0 1 0 0-3.493z" fill="#4D4D4D"/><path d="M19.53 57.456l-1.32-.66a4.628 4.628 0 0 1-.93-.633H5.991c-.773 0-1.401-.631-1.401-1.398V5.127c0-.776.628-1.404 1.401-1.404h37.567c.77 0 1.401.628 1.401 1.404v25.599c.626.148 1.222.42 1.745.81 1.023.73 1.731 1.899 1.922 3.172l.056-29.578A5.128 5.128 0 0 0 43.558 0H5.991a5.139 5.139 0 0 0-5.13 5.13v49.64a5.14 5.14 0 0 0 5.13 5.133H17.09l2.44-2.447z" fill="#4D4D4D"/></g></svg>
